etc/skel/.config/nlogout/themes/default/suspend.svg

<?xml version="1.0" encoding="UTF-8" standalone="no"?>
<svg
   xmlns:dc="http://purl.org/dc/elements/1.1/"
   xmlns:cc="http://creativecommons.org/ns#"
   xmlns:rdf="http://www.w3.org/1999/02/22-rdf-syntax-ns#"
   xmlns:svg="http://www.w3.org/2000/svg"
   xmlns="http://www.w3.org/2000/svg"
   xmlns:sodipodi="http://sodipodi.sourceforge.net/DTD/sodipodi-0.dtd"
   xmlns:inkscape="http://www.inkscape.org/namespaces/inkscape"
   inkscape:version="1.0 (4035a4fb49, 2020-05-01)"
   sodipodi:docname="suspend.svg"
   id="svg106"
   version="1.1"
   viewBox="0 0 32 32">
  <metadata
     id="metadata112">
    <rdf:RDF>
      <cc:Work
         rdf:about="">
        <dc:format>image/svg+xml</dc:format>
        <dc:type
           rdf:resource="http://purl.org/dc/dcmitype/StillImage" />
      </cc:Work>
    </rdf:RDF>
  </metadata>
  <defs
     id="defs110" />
  <sodipodi:namedview
     inkscape:current-layer="svg106"
     inkscape:window-maximized="1"
     inkscape:window-y="0"
     inkscape:window-x="0"
     inkscape:cy="16"
     inkscape:cx="16"
     inkscape:zoom="26.28125"
     showgrid="false"
     id="namedview108"
     inkscape:window-height="1021"
     inkscape:window-width="1920"
     inkscape:pageshadow="2"
     inkscape:pageopacity="0"
     guidetolerance="10"
     gridtolerance="10"
     objecttolerance="10"
     borderopacity="1"
     bordercolor="#666666"
     pagecolor="#ffffff" />
  <style
     id="current-color-scheme"
     type="text/css">
        .ColorScheme-Text {
            color:#232629;
        }
    </style>
  <g
     style="fill:#ffffff;fill-opacity:1"
     id="g104"
     fill="currentColor"
     class="ColorScheme-Text">
    <path
       style="fill:#ffffff;fill-opacity:1"
       id="path100"
       d="M9.762 5.762a12 12 0 0 0-.004.008A12 12 0 0 0 4 16a12 12 0 0 0 12 12 12 12 0 0 0 10.238-5.762l-.732-.732A11 11 0 0 1 20 23 11 11 0 0 1 9 12a11 11 0 0 1 1.486-5.502 11 11 0 0 1 .008-.004zM8.8 7.702A12 12 0 0 0 8 12a12 12 0 0 0 12 12 12 12 0 0 0 4.326-.82A11 11 0 0 1 16 27 11 11 0 0 1 5 16a11 11 0 0 1 3.8-8.299zM22 6v1h2.293l-2 2-.293.293V10h4V9h-2.293l2-2L26 6.707V6h-.707z" />
    <path
       style="fill:#ffffff;fill-opacity:1"
       id="path102"
       d="M20 13v1h2.293l-2 2-.293.293V17h4v-1h-2.293l2-2 .293-.293V13h-.707zm-6-5v1h2.293l-2 2-.293.293V12h4v-1h-2.293l2-2L18 8.707V8h-.707z" />
  </g>
</svg>

<?xml version="1.0" encoding="UTF-8" standalone="no"?>
<svg
   inkscape:version="1.3.2 (091e20ef0f, 2023-11-25, custom)"
   sodipodi:docname="suspend.svg"
   id="svg106"
   version="1.1"
   viewBox="0 0 256 256"
   width="256"
   height="256"
   xmlns:inkscape="http://www.inkscape.org/namespaces/inkscape"
   xmlns:sodipodi="http://sodipodi.sourceforge.net/DTD/sodipodi-0.dtd"
   xmlns="http://www.w3.org/2000/svg"
   xmlns:svg="http://www.w3.org/2000/svg"
   xmlns:rdf="http://www.w3.org/1999/02/22-rdf-syntax-ns#"
   xmlns:cc="http://creativecommons.org/ns#"
   xmlns:dc="http://purl.org/dc/elements/1.1/">
  <metadata
     id="metadata112">
    <rdf:RDF>
      <cc:Work
         rdf:about="">
        <dc:format>image/svg+xml</dc:format>
        <dc:type
           rdf:resource="http://purl.org/dc/dcmitype/StillImage" />
      </cc:Work>
    </rdf:RDF>
  </metadata>
  <defs
     id="defs110" />
  <sodipodi:namedview
     inkscape:current-layer="svg106"
     inkscape:window-maximized="1"
     inkscape:window-y="40"
     inkscape:window-x="0"
     inkscape:cy="127.10583"
     inkscape:cx="128.87515"
     inkscape:zoom="26.28125"
     showgrid="false"
     id="namedview108"
     inkscape:window-height="1364"
     inkscape:window-width="3440"
     inkscape:pageshadow="2"
     inkscape:pageopacity="0"
     guidetolerance="10"
     gridtolerance="10"
     objecttolerance="10"
     borderopacity="1"
     bordercolor="#666666"
     pagecolor="#ffffff"
     inkscape:showpageshadow="2"
     inkscape:pagecheckerboard="0"
     inkscape:deskcolor="#d1d1d1" />
  <style
     id="current-color-scheme"
     type="text/css">
        .ColorScheme-Text {
            color:#232629;
        }
    </style>
  <g
     style="fill:#ffffff;fill-opacity:1"
     id="g104"
     fill="currentColor"
     class="ColorScheme-Text"
     transform="matrix(11.511827,0,0,11.511827,-46.047308,-66.331147)">
    <path
       style="fill:#ffffff;fill-opacity:1"
       id="path100"
       d="M 9.762,5.762 A 12,12 0 0 0 9.758,5.77 12,12 0 0 0 4,16 12,12 0 0 0 16,28 12,12 0 0 0 26.238,22.238 L 25.506,21.506 A 11,11 0 0 1 20,23 11,11 0 0 1 9,12 11,11 0 0 1 10.486,6.498 11,11 0 0 1 10.494,6.494 Z M 8.8,7.702 A 12,12 0 0 0 8,12 12,12 0 0 0 20,24 12,12 0 0 0 24.326,23.18 11,11 0 0 1 16,27 11,11 0 0 1 5,16 11,11 0 0 1 8.8,7.701 Z M 22,6 v 1 h 2.293 l -2,2 L 22,9.293 V 10 h 4 V 9 h -2.293 l 2,-2 L 26,6.707 V 6 h -0.707 z" />
    <path
       style="fill:#ffffff;fill-opacity:1"
       id="path102"
       d="m 20,13 v 1 h 2.293 l -2,2 L 20,16.293 V 17 h 4 v -1 h -2.293 l 2,-2 L 24,13.707 V 13 H 23.293 Z M 14,8 v 1 h 2.293 l -2,2 L 14,11.293 V 12 h 4 v -1 h -2.293 l 2,-2 L 18,8.707 V 8 h -0.707 z" />
  </g>
</svg>
